X: 1
T: Tropanka Silistrenska
O: Bulgaria
Z: 2008 John Chambers <jc@trillian.mit.edu>
M: C|
L: 1/8
K: Gmix
"A"\
|: "G"cddd dccd | ~B3A "F"ABAG \
| "G"~G3F GAB2 | BccB "F"A2dc \
|  "G"~B3A "Dm"ABAG | "G"~G3D G2G2 :|
"B"\
|: "G"BccB "Dm"A2dc | "G"~B3A "F"ABAG \
| "G"~G3F GAB2 | "G"BccB "F"A2dc \
| "G"~B3A "Dm"ABAG | "G"G3D G2G2 :|
"C"\
|: "G"GA~B2 cA~B2 | cA~B2 AGGD | "G"GA~B2 BAAG \
|1,3 Bccd "F"~B3A :|2 "G"G2cd ~dcd2 :|4 "G"G2"Dm"cd "G"G2z2 ||
"D"\
|: "-"~B2"F"AG "G"G2z2 | "-"GB"F"AG "G"G2 z2 \
| "G"GABc ~B2AG | ~G3F "F"GAAG | "G"~G3d G2Gz :|
%%sep 3 1 500
